X:23
T:Auld Lang Sine. JBs.023
S:Jas.Blackshaw MS, 1837, N.Shropshire
Z:T.Weatherall 2006
M:2/4
L:1/8
Q:1/2=50
A:North Shropshire
R:Air
K:C
G|c>Bc>e|d>cd>e|c>ce>g|g3z/câ€™/|g<e e<c|d>cd>e|c<AA<G|c3:|!
|:a|ge e>c|d>cd>e|g<ee>g|a3z/câ€™/|g<ee<c|d>cd>e|c<AA<G|c3:|

